Papirus/48x48/apps/qprompt.svg

<svg width="48" height="48" version="1.1" xmlns="http://www.w3.org/2000/svg">
 <path d="m29.962963 45h-11.777779a7.61106 7.61106 21.512536 0 1-5.193166-2.046955l-6.7247782-6.276461a6.9036567 6.9036567 66.512539 0 1-2.1931653-5.046955l1.4e-6 -12.518518a7.2426434 7.2426434 112.5 0 1 2.1213203-5.121321l6.8684678-6.8684696a7.2426382 7.2426382 157.5 0 1 5.12132-2.1213204l11.777779 1e-6a7.2426422 7.2426422 22.500001 0 1 5.12132 2.1213205l6.868471 6.8684695a7.2426401 7.2426401 67.499998 0 1 2.12132 5.12132v12.518518a6.9036572 6.9036572 113.48747 0 1-2.193166 5.046955l-6.724779 6.276461a7.6110606 7.6110606 158.48747 0 1-5.193166 2.046955z" style="opacity:.2"/>
 <path d="m29.962963 44h-11.777779a7.61106 7.61106 21.512536 0 1-5.193166-2.046955l-6.7247782-6.276461a6.9036567 6.9036567 66.512539 0 1-2.1931653-5.046955l1.4e-6 -12.518518a7.2426434 7.2426434 112.5 0 1 2.1213203-5.121321l6.8684678-6.8684696a7.2426382 7.2426382 157.5 0 1 5.12132-2.1213204l11.777779 1e-6a7.2426422 7.2426422 22.500001 0 1 5.12132 2.1213205l6.868471 6.8684695a7.2426401 7.2426401 67.499998 0 1 2.12132 5.12132v12.518518a6.9036572 6.9036572 113.48747 0 1-2.193166 5.046955l-6.724779 6.276461a7.6110606 7.6110606 158.48747 0 1-5.193166 2.046955z" style="fill:#4f4f4f"/>
 <path d="m4.1835938 17a7.2426434 7.2426434 0 0 0-0.109375 1.111328v1.585938l27.847656 18.1875c0.506307 0.350195 1.16406-0.159104 0.945313-0.732422l-7.734376-18.40625c-0.439139-1.044879-1.429232-1.746094-2.568359-1.746094h-18.380859zm27.996094 4c-1.726699 0-2.60715 1.254081-1.97461 2.8125l0.962891 2.375c0.632542 1.558419 2.533068 2.8125 4.259765 2.8125h8.392578c0.08715 0 0.171155-0.005452 0.253907-0.011719v-6.339843c-0.884698-0.971807-2.237704-1.648438-3.501953-1.648438h-8.392578z" style="opacity:.1"/>
 <path d="m18.185547 4a7.2426382 7.2426382 0 0 0-5.121094 2.1210938l-6.8691405 6.8691402a7.2426434 7.2426434 0 0 0-2.1210937 5.121094v1a7.2426434 7.2426434 0 0 1 2.1210937-5.121094l6.8691405-6.8691402a7.2426382 7.2426382 0 0 1 5.121094-2.1210938h11.777344a7.2426422 7.2426422 0 0 1 5.121093 2.1210938l6.869141 6.8691402a7.2426401 7.2426401 0 0 1 2.121094 5.121094v-1a7.2426401 7.2426401 0 0 0-2.121094-5.121094l-6.869141-6.8691402a7.2426422 7.2426422 0 0 0-5.121093-2.1210938h-11.777344z" style="fill:#ffffff;opacity:.1"/>
 <path d="m32.867671 36.151938-7.735342-18.405256c-0.439141-1.044881-1.428296-1.746682-2.567425-1.746682h-19.691573c-0.8568251 0.0068-1.1982253 1.104149-0.4948667 1.590643l29.54419 19.294543c0.506309 0.350197 1.163766-0.159928 0.945017-0.733248z" style="fill:#17c7e1"/>
 <path d="m32.179857 20h8.393196c1.726697 0 3.626019 1.254615 4.258561 2.813038l0.963542 2.373923c0.632549 1.558423-0.248313 2.813039-1.97501 2.813039h-8.393197c-1.726701 0-3.626022-1.254616-4.258566-2.813039l-0.963542-2.373923c-0.632542-1.558423 0.248315-2.813038 1.975016-2.813038z" style="fill:#2ec27e;stop-color:#000000"/>
 <path d="m2.8730469 16c-0.7456404 0.005918-1.0988753 0.83681-0.7148438 1.373047 0.1486577-0.217001 0.3957641-0.370515 0.7148438-0.373047h19.691406c1.139127 0 2.12922 0.701215 2.568359 1.746094l7.589844 18.060547c0.16007-0.159657 0.242131-0.398498 0.144532-0.654297l-7.734376-18.40625c-0.439139-1.044879-1.429232-1.746094-2.568359-1.746094h-19.691406zm29.306641 4c-1.554668 0-2.419273 1.017356-2.115235 2.357422 0.214376-0.813936 0.980265-1.357422 2.115235-1.357422h8.392578c1.726693 0 3.627225 1.254081 4.259765 2.8125l0.962891 2.375c0.06302 0.155265 0.106981 0.306794 0.140625 0.455078 0.111768-0.424355 0.076145-0.921017-0.140625-1.455078l-0.962891-2.375c-0.63254-1.558419-2.533072-2.8125-4.259765-2.8125h-8.392578z" style="fill:#ffffff;opacity:.2"/>
</svg>

<svg xmlns="http://www.w3.org/2000/svg" width="48" height="48" version="1.1">
 <path style="opacity:0.2" d="M 29.963,45 H 18.185 A 7.6111,7.6111 0 0 1 12.992,42.953 L 6.2672,36.677 A 6.9037,6.9037 0 0 1 4.0741,31.63 V 19.111 A 7.2426,7.2426 0 0 1 6.1954,13.99 L 13.064,7.1213 A 7.2426,7.2426 0 0 1 18.185,5 H 29.963 A 7.2426,7.2426 0 0 1 35.084,7.1213 L 41.953,13.99 A 7.2426,7.2426 0 0 1 44.074,19.111 V 31.63 A 6.9037,6.9037 0 0 1 41.881,36.677 L 35.156,42.953 A 7.6111,7.6111 0 0 1 29.963,45 Z"/>
 <path style="fill:#4f4f4f" d="M 29.963,44 H 18.185 A 7.6111,7.6111 0 0 1 12.992,41.953 L 6.2672,35.677 A 6.9037,6.9037 0 0 1 4.0741,30.63 V 18.111 A 7.2426,7.2426 0 0 1 6.1954,12.99 L 13.064,6.1213 A 7.2426,7.2426 0 0 1 18.185,4 H 29.963 A 7.2426,7.2426 0 0 1 35.084,6.1213 L 41.953,12.99 A 7.2426,7.2426 0 0 1 44.074,18.111 V 30.63 A 6.9037,6.9037 0 0 1 41.881,35.677 L 35.156,41.953 A 7.6111,7.6111 0 0 1 29.963,44 Z"/>
 <path style="opacity:0.1" d="M 4.1836,17 A 7.2426,7.2426 0 0 0 4.0742,18.111 V 19.697 L 31.922,37.885 C 32.428,38.235 33.086,37.726 32.867,37.152 L 25.133,18.746 C 24.694,17.701 23.704,17 22.564,17 Z M 32.18,21 C 30.453,21 29.573,22.254 30.205,23.812 L 31.168,26.187 C 31.801,27.746 33.701,29 35.428,29 H 43.82 C 43.907,29 43.991,28.995 44.074,28.988 V 22.648 C 43.19,21.677 41.837,21 40.572,21 Z"/>
 <path style="opacity:0.1;fill:#ffffff" d="M 18.186,4 A 7.2426,7.2426 0 0 0 13.064,6.1211 L 6.1953,12.99 A 7.2426,7.2426 0 0 0 4.0742,18.111 V 19.111 A 7.2426,7.2426 0 0 1 6.1953,13.99 L 13.064,7.1211 A 7.2426,7.2426 0 0 1 18.186,5 H 29.963 A 7.2426,7.2426 0 0 1 35.084,7.1211 L 41.953,13.99 A 7.2426,7.2426 0 0 1 44.074,19.111 V 18.111 A 7.2426,7.2426 0 0 0 41.953,12.99 L 35.084,6.1211 A 7.2426,7.2426 0 0 0 29.963,4 Z"/>
 <path style="fill:#17c7e1" d="M 32.868,36.152 25.132,17.747 C 24.693,16.702 23.704,16 22.565,16 H 2.8733 C 2.0165,16.007 1.6751,17.104 2.3785,17.591 L 31.923,36.885 C 32.429,37.235 33.086,36.725 32.868,36.152 Z"/>
 <path style="fill:#2ec27e" d="M 32.18,20 H 40.573 C 42.3,20 44.199,21.255 44.832,22.813 L 45.795,25.187 C 46.428,26.745 45.547,28 43.82,28 H 35.427 C 33.7,28 31.801,26.745 31.168,25.187 L 30.205,22.813 C 29.572,21.255 30.453,20 32.18,20 Z"/>
 <path style="opacity:0.2;fill:#ffffff" d="M 2.873,16 C 2.1274,16.006 1.7742,16.837 2.1582,17.373 2.3069,17.156 2.554,17.003 2.873,17 H 22.564 C 23.704,17 24.694,17.701 25.133,18.746 L 32.723,36.807 C 32.883,36.647 32.965,36.408 32.867,36.152 L 25.133,17.746 C 24.694,16.701 23.704,16 22.564,16 Z M 32.18,20 C 30.625,20 29.76,21.017 30.064,22.357 30.279,21.543 31.045,21 32.18,21 H 40.572 C 42.299,21 44.199,22.254 44.832,23.812 L 45.795,26.187 C 45.858,26.343 45.902,26.494 45.936,26.643 46.047,26.218 46.012,25.722 45.795,25.187 L 44.832,22.812 C 44.199,21.254 42.299,20 40.572,20 Z"/>
</svg>
